icons/glyphs/glyph-compass.svg

<?xml version="1.0" encoding="UTF-8" standalone="no"?><svg height="22" viewBox="0 0 5.8208332 5.8208335" width="22" xmlns="http://www.w3.org/2000/svg"><sodipodi:namedview/><metadata><rdf:RDF><cc:Work><dc:format>image/svg+xml</dc:format><dc:type/><dc:title/></cc:Work></rdf:RDF></metadata><path d="m5.565829 0-.2049879.20498789c-.4239017-.30118888-1.0170303-.26537388-1.3963773.11397329-.3235953.32359518-.3978145.80306532-.2263068 1.20040892l-1.553808.948684-.109054-.109054a.1484271.1484271 0 0 0 -.021318-.021321.1484271.1484271 0 0 0 -.1894095.022139.1484271.1484271 0 0 0  .00328.2066282l.0590363.0590364-1.92688441 1.1758101 2.17451161-.9281853.7740343.7740342-.9290053 2.1736916 1.1766305-1.9260661.060678.060678a.1484271.1484271 0 0 0  .2033469.0000017.1484271.1484271 0 0 0  .0041-.2074487l-.1106943-.1106944.9495027-1.554627c.3970863.1707686.875533.0969292 1.198769-.2263066.3793955-.3793957.4151522-.9726015.1139732-1.39637746l.204988-.20498776zm-.34274.59856414c.272574.27257403.2725738.70644796 0 .97902216-.2725738.2725737-.7064483.272574-.9790221 0-.2725739-.2725738-.2733939-.70726833-.0008201-.97984225.272574-.27257388.7072683-.27175368.9798422.00082009zm-1.6972995 1.69729966-.4534335 1.0601974-.6075835-.6075837z" fill="#d0d0d0"/></svg>

<?xml version="1.0" encoding="UTF-8" standalone="no"?>
<!-- Created with Inkscape (http://www.inkscape.org/) -->

<svg
   xmlns:dc="http://purl.org/dc/elements/1.1/"
   xmlns:cc="http://creativecommons.org/ns#"
   xmlns:rdf="http://www.w3.org/1999/02/22-rdf-syntax-ns#"
   xmlns:svg="http://www.w3.org/2000/svg"
   xmlns="http://www.w3.org/2000/svg"
   xmlns:sodipodi="http://sodipodi.sourceforge.net/DTD/sodipodi-0.dtd"
   xmlns:inkscape="http://www.inkscape.org/namespaces/inkscape"
   width="22"
   height="22"
   viewBox="0 0 5.8208332 5.8208335"
   version="1.1"
   id="svg8"
   inkscape:version="0.92+devel 15724 custom"
   sodipodi:docname="glyph-compass.svg">
  <defs
     id="defs2" />
  <sodipodi:namedview
     id="base"
     pagecolor="#002466"
     bordercolor="#ffffff"
     borderopacity="0.37647059"
     inkscape:pageopacity="1"
     inkscape:pageshadow="2"
     inkscape:zoom="22.627417"
     inkscape:cx="7.9340606"
     inkscape:cy="12.732532"
     inkscape:document-units="px"
     inkscape:current-layer="svg8"
     inkscape:document-rotation="0"
     showgrid="false"
     inkscape:showpageshadow="false"
     borderlayer="true"
     units="px"
     inkscape:window-width="1920"
     inkscape:window-height="1051"
     inkscape:window-x="0"
     inkscape:window-y="0"
     inkscape:window-maximized="1"
     inkscape:snap-bbox="true"
     inkscape:snap-bbox-edge-midpoints="true"
     inkscape:snap-center="true" />
  <metadata
     id="metadata5">
    <rdf:RDF>
      <cc:Work
         rdf:about="">
        <dc:format>image/svg+xml</dc:format>
        <dc:type
           rdf:resource="http://purl.org/dc/dcmitype/StillImage" />
        <dc:title></dc:title>
      </cc:Work>
    </rdf:RDF>
  </metadata>
  <path
     style="fill:#d0d0d0;stroke:none;stroke-width:0.17145319;stroke-linecap:round;stroke-linejoin:bevel;stroke-miterlimit:4;stroke-dasharray:none"
     d="M 5.565829,0 5.3608411,0.20498789 C 4.9369394,-0.09620099 4.3438108,-0.06038599 3.9644638,0.31896118 3.6408685,0.64255636 3.5666493,1.1220265 3.738157,1.5193701 L 2.184349,2.4680541 2.075295,2.3590001 a 0.1484271,0.1484271 0 0 0 -0.021318,-0.021321 0.1484271,0.1484271 0 0 0 -0.1894095,0.022139 0.1484271,0.1484271 0 0 0 0.00328,0.2066282 L 1.9268838,2.6254827 -6.1e-7,3.8012928 2.174511,2.8731075 2.9485453,3.6471417 2.01954,5.8208333 3.1961705,3.8947672 l 0.060678,0.060678 a 0.1484271,0.1484271 0 0 0 0.2033469,1.7e-6 0.1484271,0.1484271 0 0 0 0.0041,-0.2074487 L 3.3536011,3.6373038 4.3031038,2.0826768 C 4.7001901,2.2534454 5.1786368,2.179606 5.5018728,1.8563702 5.8812683,1.4769745 5.917025,0.8837687 5.615846,0.45999274 L 5.820834,0.25500498 Z m -0.34274,0.59856414 c 0.272574,0.27257403 0.2725738,0.70644796 0,0.97902216 -0.2725738,0.2725737 -0.7064483,0.272574 -0.9790221,0 C 3.971493,1.3050125 3.970673,0.87031797 4.2432468,0.59774405 4.5158208,0.32517017 4.9505151,0.32599037 5.223089,0.59856414 Z M 3.5257895,2.2958638 3.072356,3.3560612 2.4647725,2.7484775 Z"
     id="path4282"
     inkscape:label="#"
     inkscape:connector-curvature="0" />
</svg>
